X:1
T:Title
%%score { 1 | 2 }
L:1/8
M:3/4
K:Db
V:1 treble nm="Grand Piano"
V:2 bass 
V:1
 z2 z2[Q:1/4=100] A2 | A3 =G BA | F4 D2 | [CE]3 [DF] [EG][CA] | F4 A2 |[M:4/4] A3 A GFB[Gc] | %6
[M:3/4] [Fd]4 [DB]2 | [DA]3[K:bass] [F,D] [G,CE][A,CF] | [F,D]4 z2 | [Fd]3 [Fd] [Ge][Ec] | %10
 [Fd]4 z2 | [DGB]3 [DBd] [DAc][DGB] | [DFA]4 z2 |[M:4/4] A3 A GFB[Gc] |[M:3/4] [Fd]4 [DB]2 | %15
 [DA]3[K:bass] [F,D] [G,CE][A,CF] |[M:2/4] [F,D]4 |] %17
V:2
 z2 z2 [D,F,D]2 | [D,F,D]3 [D,_F,D] [D,G,D][D,=F,D] | [D,A,D]4 [D,F,]2 | %3
 [A,,A,]3 [A,,A,] [A,,A,][A,,A,] | [D,A,D]4 [D,F,D]2 | %5
[M:4/4] [D,F,D]3 [F,A,D] [E,A,C][D,D][G,B,D][E,A,] |[M:3/4] [D,A,]4 [G,,G,]2 | %7
 [A,,F,]3 A,, A,,A,, | D,4 z2 | [D,A,]3 [D,A,] [G,,B,][A,,A,] | [D,A,]4 z2 | G,,3 G,, G,,G,, | %12
 D,4 z2 |[M:4/4] [D,F,D]3 [F,A,D] [E,A,C][D,D][G,B,D][E,A,] |[M:3/4] [D,A,]4 [G,,G,]2 | %15
 [A,,F,]3 A,, A,,A,, |[M:2/4] D,4 |] %17

